X: 13566
T: Fly In The Porter, The
R: jig
M: 6/8
K: Dmixolydian
B|:AFA d2A|dfa gfe|fed efd|cAG EFG|
AFA d2A|dfa gfe|fed cAG|Ad^c d2B:|
|:~A3 GFG|A2D FED|EDE cBc|~G3 cAG|
~A3 GFG|AGA efg|fed cAG|1 Ad^c d2B]:|2 Ad^c d2e||
|:fdf gfg|AdA cde|fed efg|agf d3|
fdf gfg|AdA cde|fed cAG|Ad^c d3:|

